X:1     %Music
T:The Piper o' Dundee
B:Singing Together, Spring 1981, BBC Publications
F:http://www.folkinfo.org/songs
M:4/4     %Meter
L:1/8     %
K:Bb
D |G3/2A/ BG D2 D=E |FG AB cA F
w:The Pip-er cam' to oor toun, to oor_ toun, to oor_ toun, 
A |G3/2A/ BG D2 De | d3/2c/ BA G2 z 
w:The Pip-er cam' to oor toun. And he played bon-nie-lie. 
A |:B3/2B/ Bd c3/2c/ cd |B3/2B/ Bd cA  F
w:He played a spring the Laird to please, A spring bent new frae yont the seas;
A |B3/2B/ Bd c3/2c/ ce |d3/2c/ BA G2 z
w:And then he gi'ed his bags a squeeze, And played an-i-ther key.
 D |G3/2A/ BG D2 D=E |FG AB cA F
w: And was-na he a rog-ie, a rog--ie, a rog--ie
A |G3/2A/ BG D2 De | d3/2c/ BA G2 z2 |]
w:And was-na he a rog-ie, The Pip-er o' Dun-dee. 
